!!!!SEGMENT: pl-wtm--a-37-728-87_piotrowski-aleksander--calowac-daj-usta-twe-noc-ksiezycowa.krn
!!!cenid: 19xx:47
!!!COM: Piotrowski, Aleksander
!!!COM-rismID: pe50047948
!!!CDT: 1870-1938
!!!CNT: Russian
!!!OTL: Całować daj usta twe/Noc księżycowa
!!!PDT:
!!!AGN: Secular
!!!YEC: Copyright 2022 Narodowy Instytut Fryderyka Chopina (https://polishscores.org)
!!!YEM: License CC-BY-4.0 (https://creativecommons.org/licenses/by/4.0)
!!!SMS-siglum: PL-Wtm
!!!SMS-shelfmark: A.37.728/87
!!!SMS-variant:
!!!SMS-altvar:
!!!SMS-shelfwork: W
!!!NIFC-rismSourceID: 1001215024
!!!NIFC-rismChildID: 1001215024
!!!NIFC-islandoraID: pl-wtm:96805
!!!URL-pdf-islandora: https://repozytorium.nifc.pl/islandora/object/pl-wtm%3A96805/datastream/PDF/view
!!!URL-scan: https://polish.musicsources.pl/pl/lokalizacje/galeria/druki-muzyczne/21759/2 @EN{Scan on Polish Music Sources Website} @PL{Skany w portalu Dziedzictwo Muzyki Polskiej w otwartym dostępie}
!!!IIIF:
!!!ONB-nifc:
!!!OMD: Moderato.
!!!AIN: 1 piano 1 vox
!!!key:
**kern	**kern	**dynam	**kern	**text	**text
*part2	*part2	*part2	*part1	*part1	*part1
*staff3	*staff2	*	*staff1	*staff1	*staff1
*I"[Piano]	*	*	*I"[Voce]	*	*
*Ipiano	*	*	*Ivox	*	*
*ICklav	*	*	*ICvox	*	*
*IGacmp	*	*	*IGsolo	*	*
*clefF4	*clefG2	*	*clefG2	*	*
*k[]	*k[]	*	*k[]	*	*
*C:	*C:	*	*C:	*	*
*M4/4	*M4/4	*	*M4/4	*	*
*met(c)	*met(c)	*	*met(c)	*	*
*>[A,B,B1,B,B2,C]	*>[A,B,B1,B,B2,C]	*	*>[A,B,B1,B,B2,C]	*	*
=1	=1	=1	=1	=1	=1
*>A	*>A	*	*>A	*	*
*^	*	*	*	*	*
8CC/	4ryy	8r	mf	1ryy	.	.
4G\ 4c 4e	.	(8cc:\L 8ee: 8gg: 8ccc:	<	.	.	.
.	4ryy	8dd:\ 8ee: 8gg: 8bb:	.	.	.	.
8G\ 8c 8e	.	8cc:\J 8ee: 8gg: 8ccc:	.	.	.	.
8E\	2E/	2dd:\) 2ee: 2gg: 2ddd:	.	.	.	.
4G\ 4c 4e	.	.	.	.	.	.
8G\ 8c 8e	.	.	[[	.	.	.
*v	*v	*	*	*	*	*
=2	=2	=2	=2	=2	=2
8CC^/	8r	.	1ryy	.	.
4c\ 4e-X 4a-X	(8cc:\L 8ee-X: 8aa-X: 8ccc:	<	.	.	.
.	8bn:\ 8ee-: 8aa-: 8bbn:	.	.	.	.
4c\ 4e- 4a-	8cc:\J 8ee-: 8aa-: 8ccc:	.	.	.	.
.	2dd:\) 2ee-: 2aa-: 2ddd:	.	.	.	.
4c\ 4e- 4a-	.	.	.	.	.
8c\ 8e- 8a-	.	[[	.	.	.
=3	=3	=3	=3	=3	=3
8GGG^/	8r	.	1ryy	.	.
4G\ 4c 4en 4g	(8cc:\L 8een: 8gg: 8ccc:	f <	.	.	.
.	8dd:\ 8ee: 8gg: 8ddd:	.	.	.	.
4G\ 4c 4e 4g	8ee:\J 8eee:	.	.	.	.
.	8gg:\L 8ccc: 8eee: 8ggg:	.	.	.	.
8G\ 8c 8e 8g	8ee:\ 8eee:	.	.	.	.
4GG:\ 4D: 4F: 4B:	8dd:\ 8ff: 8gg: 8ddd:	.	.	.	.
.	8ee:\J) 8gg: 8bb: 8eee:	[	.	.	.
=4	=4	=4	=4	=4	=4
!	!LO:TUP:a	!	!	!	!
!	!LO:TX:t=P:problem:klamra łukowa	!	!	!	!
(8CC:\L 8GG: 8E:	24ee\LL 24eee	>	1ryy	.	.
.	24ddd\	.	.	.	.
.	[24ccc\JJ	.	.	.	.
8c\	4ccc\]	.	.	.	.
8g\	.	.	.	.	.
8e\J	8ccc\	]	.	.	.
8c~\L	2r	.	.	.	.
8G~\	.	.	.	.	.
8E~\	.	.	.	.	.
8G~\J)	.	.	.	.	.
!!LO:LB:g=original
=5||	=5||	=5||	=5||	=5||	=5||
*k[b-e-a-]	*k[b-e-a-]	*	*k[b-e-a-]	*	*
(>8qqCC/	.	.	.	.	.
1C)	8r	.	1r	.	.
.	8G/L 8c 8e-	.	.	.	.
.	(8A-^/ 8c 8e-	.	.	.	.
.	8G/J) 8c 8e-	.	.	.	.
.	(8A-^/L 8c 8e-	.	.	.	.
.	8G/) 8c 8e-	.	.	.	.
.	(8A-^/ 8c 8e-	.	.	.	.
.	8G/J) 8c 8e-	.	.	.	.
=6!|:	=6!|:	=6!|:	=6!|:	=6!|:	=6!|:
*>B	*>B	*	*>B	*	*
1CC	8r	p	1r	.	.
.	8G/L 8c 8e-	.	.	.	.
.	(8A-^/ 8c 8e-	.	.	.	.
.	8G/J) 8c 8e-	.	.	.	.
.	(8A-^/L 8c 8e-	.	.	.	.
.	8G/) 8c 8e-	.	.	.	.
.	(8A-^/ 8c 8e-	.	.	.	.
.	8G/J) 8c 8e-	.	.	.	.
=7	=7	=7	=7	=7	=7
8CC/	8r	.	8r	.	.
*	*	*	*	*v:1	*v:2
!	!LO:TX:b:t=molto cantabile	!	!	!	!
4G\ 4c 4e-	(8cc\L	<	8cc\	Noc	Pa-
.	8dd\	.	8dd\	księ-	-li-
8G\ 8c 8e-	8ee-\J	.	8ee-\	-ży-	-ła
8r	8dd\L	.	8dd\	-co-	mnie
4G\ 4d 4f	8cc\	[	8cc\	-wa	już
.	8bn\	.	8bn\	i	doś
8G\ 8d 8f	8dd\J)	.	8dd\	pach-	tęs-
=8	=8	=8	=8	=8	=8
*	*^	*	*	*	*
8CC/	1g/	8r	p	2g/	-ną-	-kno-
4C\ 4E- 4G	.	(>8c\L	.	.	.	.
.	.	8d\	.	.	.	.
4C\ 4E- 4G	.	8e-\J	.	.	.	.
.	.	8d\L	.	2g/	-ca	-ta
4C\ 4E- 4G	.	8c\	.	.	.	.
.	.	8Bn\	.	.	.	.
8C\ 8E- 8G	.	8c\J)	.	.	.	.
*	*v	*v	*	*	*	*
!!LO:LB:g=original
=9	=9	=9	=9	=9	=9
2CC/	8r	.	8r	.	.
*	*	*	*	*v:1	*v:2
.	4A-/ 4c 4d 4f	<	8f/	Z sre-	Pa-
.	.	.	8g/	-brzy-	-li-
.	4A-/ 4c 4d 4f	.	8a-/	-stym	-ły
(>8C/L	.	.	8g/	bla-	na-
8D/	4c/ 4d 4f 4a-	.	8f/	-skiem	-wet
8F/	.	.	8e-/	z szu-	cza-
8A-/J)	8c/ 8d 8f 8a-	[[	8d/	-mem	-sem
=10	=10	=10	=10	=10	=10
(16qqCC/LL	.	.	.	.	.
16qqGG/JJ	.	.	.	.	.
*^	*^	*	*	*	*
(>&(<2E-/)	4r	2g/	8r	<	1g	drzew,	łzy...
.	.	.	(8c\L	.	.	.	.
.	[4GG\	.	8d\	.	.	.	.
.	.	.	8e-\J	[	.	.	.
2F/)	2GG\]&)	2Bn\	8g/L	>	.	.	.
.	.	.	8f/	.	.	.	.
.	.	.	8e-/	.	.	.	.
.	.	.	8d/J)	]]	.	.	.
*v	*v	*	*	*	*	*	*
=11	=11	=11	=11	=11	=11	=11
8CC/	8r	4ryy	.	8r	.	.
4G\ 4c 4e-	8cc\L	.	<	8cc\	Jak	Zro-
.	8dd\	4ryy	.	8dd\	pie-	-zu-
4G\ 4c 4e-	8ee-\J	.	.	8ee-\	-szczot	-mie
.	8dd/L	4r	.	8dd\	two-	ka-
8G\ 8c 8e-	8cc/	.	.	8cc\	-ich	-żdy,
4BB-~\ 4A-	8b-X/	4d\	.	8b-\	moc	któ-
.	8cc/J	.	.	8cc\	draż-	-ry
!!LO:LB:g=original
=12	=12	=12	=12	=12	=12	=12
*	*	*	*	*	*v:1	*v:2
2EE-/ 2BB-	2g/	8r	<	2g/	-nią-	ko-
.	.	8B-\L 8e-	.	.	.	.
.	.	8G\	.	.	.	.
.	.	8B-\J 8e-	.	.	.	.
4.FF/	2cc/	8r	.	2cc\	-ca	-cha,
.	.	8d\L 8f 8a-	.	.	.	.
.	.	8c\	[ f	.	.	.
8r	.	8d\J 8f 8a-	.	.	.	.
=13;	=13;	=13	=13	=13;	=13	=13
8GG^/	8r	4ryy	p	8r	.	.
4E-\ 4G 4c	8e-/L	.	<	8e-/	Go-	Zro-
.	8f/	4ryy	.	8e-/	-rą-	-zu-
8E-\ 8G 8c	8g/J	.	.	8g/	-cą	-mieć
4FF~/ 4D-X	8a-/L	4d-X\	[ f	8a-/	fa-	mu-
.	8d-/J	.	.	8d-X/	-lą	-sisz
!	!	!	!LO:DY:t=p sub.	!	!	!
4GG~\ 4F	8.g/L	4G\ 4Bn	p	8.g/	sma-	więc
.	16g/Jk	.	.	16g/	-ga	i
=14	=14	=14	=14	=14	=14	=14
1CC 1GG	1g	8An\L 8c 8en	.	1g	krew	ty.
.	.	8G\ 8c 8e	.	.	.	.
.	.	8A\ 8c 8e	.	.	.	.
.	.	8G\J 8c 8e	.	.	.	.
.	.	8A\L 8c 8e	.	.	.	.
.	.	8G\ 8c 8e	.	.	.	.
.	.	8A\ 8c 8e	.	.	.	.
.	.	8G\J 8c 8e	.	.	.	.
*	*v	*v	*	*	*	*
!!LO:PB:g=original
=15||	=15||	=15||	=15||	=15||	=15||
*k[]	*k[]	*	*k[]	*	*
8CC/ 8GG	8r	p	8r	.	.
*	*	*	*	*v:1. 2. 	*
4G\ 4c 4e	8cc:\L 8ee: 8gg: 8ccc:	<	8cc\	Ca-	.
.	8b:\ 8ee: 8gg: 8bb:	.	8b\	-ło-	.
8G\ 8c 8e	8cc:\J 8ee: 8gg: 8ccc:	.	8cc\	-wać	.
8EE/	2dd\ 2ee 2gg 2ddd	.	2dd\	daj,	.
4G\ 4c 4e	.	.	.	.	.
8G\ 8c 8e	.	[[	.	.	.
=16	=16	=16	=16	=16	=16
8CC/	8r	<	8r	.	.
4G\ 4c 4e	(8b:\L 8ee: 8gg: 8bb:	.	8b\	ca-	.
.	8a:\ 8cc: 8ee: 8aa:	.	8a/	-ło-	.
8G\ 8c 8e	8b:\J 8ee: 8gg: 8bb:	.	8b\	-wać	.
8GG/	2cc:\) 2ee: 2gg: 2ccc:	.	2cc\	daj	.
4G\ 4c 4e	.	.	.	.	.
8G\ 8c 8e	.	[[	.	.	.
=17	=17	=17	=17	=17	=17
8CC/	8r	<	8r	.	.
4G\ 4c 4e	(8a:\L 8cc: 8ee: 8aa:	.	8a/	roz-	.
.	8g:\ 8cc: 8ee: 8gg:	.	8g/	-pło-	.
8G\ 8c 8e	8a:\J 8cc: 8ee: 8aa:	.	8a/	-mie-	.
8GG/	4b:\ 4ee: 4gg: 4bb:	.	4b\	-nio-	.
4G\ 4c 4e	.	.	.	.	.
.	4g:\) 4cc: 4ee: 4gg:	.	4g/	-ne	.
8G\ 8c 8e	.	[[	.	.	.
=18	=18	=18	=18	=18	=18
!	!LO:TX:t=P:problem:klamra łukowa	!	!LO:TX:t=P:problem:klamra łukowa	!	!
!	!LO:TUP:a	!	!	!	!
8D\	24ff\LL	.	24f/LL	us-	.
.	24ee\	.	24e/JJ	.	.
.	[24dd\J	.	24d/	-ta	.
4G\ 4B 4f	8dd\J_	.	[8d/	twe;	.
.	2.dd\]	.	2.d/]	.	.
8G\ 8B 8f	.	.	.	.	.
8GG/	.	.	.	.	.
4G\ 4B 4f	.	.	.	.	.
8G\ 8B 8f	.	.	.	.	.
!!LO:LB:g=original
=19	=19	=19	=19	=19	=19
8BB/	8r	mf	8r	.	.
4G\ 4d 4f	8dd:\L 8ff: 8gg: 8ddd:	.	8dd\	Do-	.
.	8cc#X:\ 8ff: 8gg: 8ccc#X:	.	8cc#X\	-tknię-	.
8G\ 8d 8f	8dd:\J 8ff: 8gg: 8ddd:	.	8dd\	-cie	.
8GG/	2ee:\ 2gg: 2bb: 2eee:	.	2ee\	ich	.
4G\ 4B 4f	.	.	.	.	.
8G\ 8B 8f	.	.	.	.	.
=20	=20	=20	=20	=20	=20
8BB/	8r	.	8r	.	.
4G\ 4d 4f	(8dd:\L 8ff: 8gg: 8ddd:	>	8dd\	to	.
.	8b:\ 8dd: 8ff: 8bb:	.	8b\	roz-	.
8G\ 8d 8f	8g:\J 8b: 8dd: 8gg:	.	8g/	-kosz	.
8GG\	2f:\) 2g: 2b: 2ff:	.	2f/	ma,	.
4F\ 4G 4B	.	.	.	.	.
8F\ 8G 8B	.	]	.	.	.
=21	=21	=21	=21	=21	=21
8DD/	8r	<	8r	.	.
4F\ 4G 4B	(8f:/L 8g: 8b: 8ff:	.	8f/	Co	.
.	8c#X/ 8cc#X	.	8c#X/	za-	.
8F\ 8G 8B	8d/J 8dd	.	8d/	-wsze	.
8GG\	4ccn:\ 4dd: 4ff: 4cccn:	.	4ccn\	no-	.
4G\ 4B 4f	.	.	.	.	.
.	4b:\ 4dd: 4ff: 4bb:	.	4b\	-we	.
8G\ 8B 8f	.	[[	.	.	.
=22	=22	=22	=22	=22	=22
(8CC:\L 8GG: 8E:	16a\LL 16cc 16ee 16aa	.	16a/	ża-	.
.	16e\J 16ee	.	16e/	-ry	.
!	!	!	!LO:SIC:s=[8e/	!	!
8G\	[>8e\J [>8ee	.	8ryy	.	.
8c\	4e\]) 4ee]	.	[4e/	śle,	.
8e\J)	.	.	.	.	.
!	!	!LO:DY:rj	!	!	!
8B>\L 8g>	2r	f	2e/]	.	.
8A>\ 8B> 8f>	.	.	.	.	.
8G>\ 8B> 8e>	.	.	.	.	.
8F>\J 8B> 8d>	.	.	.	.	.
=23	=23	=23	=23	=23	=23
8CC/ 8GG	8r	p <	8r	.	.
4G\ 4c 4e	(8cc:\L 8ee: 8gg: 8ccc:	.	8cc\	Twych	.
.	8b:\ 8ee: 8gg: 8bb:	.	8b\	ra-	.
8G\ 8c 8e	8cc:\J 8ee: 8gg: 8ccc:	.	8cc\	-mion	.
8EE\	2dd:\) 2ee: 2gg: 2ddd:	.	2dd\	splot,	.
4G\ 4c 4e 4g	.	.	.	.	.
8G\ 8c 8e 8g	.	[[	.	.	.
!!LO:LB:g=original
=24	=24	=24	=24	=24	=24
8CC/	8r	.	8r	.	.
4G\ 4c 4e	8b:\L 8ee: 8gg: 8bb:	<	8b\	Ko-	.
.	8a:\ 8cc: 8ee: 8aa:	.	8a\	-cha-	.
8G\ 8c 8e	8b:\J 8ee: 8gg: 8bb:	.	8b\	-nie	.
8GG/	2cc:\ 2ee: 2gg: 2ccc:	.	2cc\	me	.
4G\ 4c 4e	.	.	.	.	.
8G\ 8c 8e	.	[	.	.	.
=25	=25	=25	=25	=25	=25
8CC/	8r	<	8r	.	.
4G\ 4c 4e	8a:\L 8cc: 8ee: 8aa:	.	8a/	cza-	.
.	8g:\ 8cc: 8ee: 8gg:	.	8g/	-ro-	.
8G\ 8c 8e	8a:\J 8cc: 8ee: 8aa:	.	8a/	-wną	.
8GG/	4b:\ 4ee: 4gg: 4bb:	.	4b\	w so-	.
4G\ 4c 4e	.	.	.	.	.
.	4g:\ 4cc: 4ee: 4gg:	.	4g/	-bie	.
8G\ 8c 8e	.	[	.	.	.
=26	=26	=26	=26	=26	=26
*^	*	*	*	*	*
!	!	!LO:TX:t=P:problem:klamra łukowa	!	!LO:TX:t=P:problem:klamra łukowa	!	!
!	!	!LO:TUP:a	!	!	!	!
8D\	2ryy	24ff\LL	>	24f/LL	si-	.
.	.	24ee\	.	24e/JJ	.	.
.	.	[24dd\J	.	24d/	-łę	.
4G\ 4B 4f	.	8dd\J_	.	[8d/	ma,	.
.	.	2.dd\]	.	2.d/]	.	.
8G\ 8B 8f	.	.	.	.	.	.
(<8G:/L	2GG:\	.	]	.	.	.
8F/	.	.	.	.	.	.
8D/	.	.	.	.	.	.
8BB/J)	.	.	.	.	.	.
*v	*v	*	*	*	*	*
=27	=27	=27	=27	=27	=27
8GG/	8r	f	8r	.	.
4F\ 4G 4B	8d\L 8dd	<	8d/	W nich	.
.	8e\ 8ee	.	8e/	mo-	.
!	!LO:SIC:s=8f\J	!	!	!	!
4F\ 4G 4B	8e\J 8ff	.	8f/	-gę	.
.	8g\L 8gg	.	8g/	zam-	.
4G\ 4B 4f	8a\ 8aa	.	8a/	-knąć	.
.	8b\ 8bb	.	8b\	ży-	.
8G\ 8B 8f	8ff\J 8fff	[[	8ff\	-cie	.
!!LO:LB:g=original
=28	=28	=28	=28	=28	=28
*^	*	*	*	*	*
8r	8GG\	2ee:\ 2gg: 2bb: 2eee:	f	2ee\	ca-	.
!	!LO:N:vis=[4F\ [4G	!	!	!	!	!
(8B/L	[4.F\ [4.G	.	.	.	.	.
8c/	.	.	.	.	.	.
8c#X/J	.	.	.	.	.	.
8e/L	4F\] 4G]	2dd:\ 2ff: 2bb: 2ddd:	.	2dd\	-łe	.
8d/	.	.	.	.	.	.
8B/	4F\ 4G	.	.	.	.	.
8G/J)	.	.	.	.	.	.
*v	*v	*	*	*	*	*
=29	=29	=29	=29	=29	=29
8FF/ 8F	8r	<	8r	.	.
4F\ 4G 4B	8d/L	.	8d/	w nich	.
.	8e/	.	8e/	tyl-	.
4F\ 4G 4B	8f/J	.	8f/	-ko	.
.	8g/L	.	8g/	ser-	.
4G\ 4B 4f	8a/	.	8a/	-ce	.
.	8b/	.	8b\	ży-	.
8G\ 8B 8f	8ee/J	[	8ee\	-wiej	.
=30	=30	=30	=30	=30	=30
*>B1	*>B1	*	*>B1	*	*
.	16qqee/LL	>	16qqee/LL	.	.
.	16qqdd/JJ	.	16qqdd/JJ	.	.
8CC:\L 8GG: 8E:	1cc	.	2cc\	drga!	.
8a\	.	.	.	.	.
8g\	.	.	.	.	.
8e\J	.	.	.	.	.
8c\L	.	]	2r	.	.
8A\	.	.	.	.	.
8G\	.	.	.	.	.
8E\J	.	.	.	.	.
=31	=31	=31	=31	=31	=31
(>8qqCC/	.	.	.	.	.
*^	*	*	*	*	*
8C\)	2ryy	8r	<	1r	.	.
4G\ 4c 4e	.	8cc:\L 8ee: 8gg: 8ccc:	.	.	.	.
.	.	8b:\ 8ee: 8gg: 8bb:	.	.	.	.
!LO:N:vis=4G\ 4c 4e	!	!	!	!	!	!
8G\ 8c 8e	.	8cc:\J 8ee: 8gg: 8ccc:	.	.	.	.
8E\	2E/	2dd:\ 2ee: 2gg: 2ddd:	.	.	.	.
4G\ 4c 4e	.	.	.	.	.	.
8G\ 8c 8e-X	.	.	[[	.	.	.
*v	*v	*	*	*	*	*
=32	=32	=32	=32	=32	=32
8CC^/	8r	.	1r	.	.
4c\ 4e-X 4a-X	8cc:\L 8ee-X: 8aa-X: 8ccc:	>	.	.	.
.	8bn:\ 8ee-: 8aa-: 8bbn:	.	.	.	.
4c\ 4e- 4a-	8cc:\J 8ee-: 8aa-: 8ccc:	.	.	.	.
.	2dd:\ 2ee-: 2aa-: 2ddd:	.	.	.	.
4c\ 4e- 4a-	.	.	.	.	.
8c\ 8e- 8a-	.	]]	.	.	.
!!LO:PB:g=original
=33	=33	=33	=33	=33	=33
8GGG/	8r	f	1r	.	.
4G\ 4c 4e 4g	8cc~:\L 8een: 8gg: 8ccc:	<	.	.	.
.	8dd~:\ 8ee: 8gg: 8ddd:	.	.	.	.
4G\ 4c 4e 4g	8ee~\J 8eee	.	.	.	.
.	8gg~:\L 8ccc: 8eee: 8ggg:	.	.	.	.
8G\ 8c 8e 8g	8ee\ 8eee	.	.	.	.
4GG:\ 4D: 4F: 4B:	8dd:\ 8ff: 8gg: 8ddd:	.	.	.	.
.	8ee:\J 8gg: 8bb: 8eee:	[[	.	.	.
=34	=34	=34	=34	=34	=34
.	(16qqeee/LL	.	.	.	.
.	16qqddd/JJ	.	.	.	.
1CC: 1GG: 1E:	8ccc\)	p	1r	.	.
.	8G/L 8c 8e	.	.	.	.
.	(8A^/ 8c 8e	.	.	.	.
.	8G/J) 8c 8e	.	.	.	.
.	(8A^/L 8c 8e	.	.	.	.
.	8G/) 8c 8e	.	.	.	.
.	(8A^/ 8c 8e	.	.	.	.
!	!LO:TX:t=P:problem:wpisane 3 bemole po dwukresce	!	!	!	!
.	8G/J) 8c 8e	.	.	.	.
=35:|!	=35:|!	=35:|!	=35:|!	=35:|!	=35:|!
*>B2	*>B2	*	*>B2	*	*
.	(16qqee/LL	<	(16qqee/LL	.	.
.	16qqdd/JJ	.	16qqdd/JJ	.	.
8CC:\ 8GG: 8E:	8cc,\L)	.	2cc\)	drga	.
4G\ 4c 4e	8g^^\ 8cc 8ee 8gg	.	.	.	.
.	8f#X^^\ 8cc 8ee 8ff#X	.	.	.	.
8G\ 8e	8g^^\J 8cc 8ee 8gg	.	.	.	.
8DD\ 8D	8b^^\L 8dd 8ff# 8bb	.	2r	.	.
4G\ 4B 4d 4f	8a^^\ 8dd 8ff# 8aa	.	.	.	.
.	8a-X^^\ 8dd 8ff# 8aa-X	.	.	.	.
8G\ 8B 8d 8f	8g^^\J 8dd 8ff# 8gg	[	.	.	.
=36	=36	=36	=36	=36	=36
*>C	*>C	*	*>C	*	*
!	!	!	!LO:TX:t=P:problem:*>C użyte ze względów graficznych	!	!
8CC\ 8GG	8r	.	1r	.	.
!	!LO:TX:a:t=non arpegiato	!	!	!	!
4G\ 4c 4e	8cc~\L 8ee 8gg 8ccc	ff	.	.	.
.	8b~\ 8ee 8gg 8bb	.	.	.	.
8G\ 8c 8e	8cc~\J 8ee 8gg 8ccc	.	.	.	.
8EE\	2dd~\ 2ee 2gg 2ddd	.	.	.	.
4G\ 4c 4e	.	.	.	.	.
8G\ 8c 8e	.	.	.	.	.
=37	=37	=37	=37	=37	=37
8CC\	8r	.	1r	.	.
4G\ 4c 4e	8b~\L 8ee 8gg 8bb	.	.	.	.
.	8a~\ 8cc 8ee 8aa	.	.	.	.
8G\ 8c 8e	8b~\J 8ee 8gg 8bb	.	.	.	.
8GG\	2cc~\ 2ee 2gg 2ccc	.	.	.	.
4G\ 4c 4e	.	.	.	.	.
8G\ 8c 8e	.	.	.	.	.
!!LO:LB:g=original
=38	=38	=38	=38	=38	=38
8CC\ 8GG	8r	.	1r	.	.
4G\ 4c 4e	8a~\L 8cc 8ee 8aa	.	.	.	.
.	8g~\ 8cc 8ee 8gg	.	.	.	.
8G\ 8c 8e	8a~\J 8cc 8ee 8aa	.	.	.	.
8GG\	4b~\ 4ee 4gg 4bb	.	.	.	.
4G\ 4c 4e	.	.	.	.	.
.	4g~\ 4cc 4ee 4gg	.	.	.	.
8G\ 8c 8e	.	.	.	.	.
=39	=39	=39	=39	=39	=39
!	!LO:TX:t=P:problem:klamra łukowa	!	!	!	!
!	!LO:TUP:a	!	!	!	!
8DD/ 8D	24f\LL 24ff	.	1r	.	.
.	24e\ 24ee	.	.	.	.
.	24d\J [24dd	.	.	.	.
4F\ 4G 4B	8d\J 8dd_	.	.	.	.
.	2.d\ 2.dd]	.	.	.	.
8F\ 8G 8B	.	.	.	.	.
8BB^^\L 8B	.	.	.	.	.
8AA^^\ 8A	.	.	.	.	.
8AA^^\ 8A	.	.	.	.	.
8GG^^\J 8G	.	.	.	.	.
=40	=40	=40	=40	=40	=40
8BBB\ 8BB	8r	<	1r	.	.
4G\ 4B 4d 4f	8dd~\L 8ff 8gg 8ddd	.	.	.	.
.	8cc#X~\ 8ff 8gg 8ccc#X	.	.	.	.
8G\ 8B 8d 8f	8dd~\J 8ff 8gg 8ddd	.	.	.	.
8GG/	2ee\ 2gg 2bb 2eee	.	.	.	.
4G\ 4B 4d 4f	.	.	.	.	.
8G\ 8B 8d 8f	.	[[	.	.	.
=41	=41	=41	=41	=41	=41
*^	*	*	*	*	*
8BBB/ 8BB	2ryy	8r	.	1r	.	.
4G\ 4B 4d 4f	.	8ff~\L 8gg 8ddd	.	.	.	.
.	.	8b~\ 8dd 8ff 8bb	.	.	.	.
8G\ 8B 8d 8f	.	8g~\J 8b 8dd 8gg	.	.	.	.
8D\	2D/	2f\ 2g 2b 2ff	.	.	.	.
4F\ 4G 4B	.	.	.	.	.	.
8F\ 8G 8B	.	.	.	.	.	.
*v	*v	*	*	*	*	*
=42	=42	=42	=42	=42	=42
8GG\	8r	<	1r	.	.
4F\ 4G 4B	8f~\L 8g 8b 8ff	.	.	.	.
.	8c#X~\ 8cc#X	.	.	.	.
8F\ 8G 8B	8d~\J 8dd	.	.	.	.
!	!LO:SIC:n=1:v:s=4ccn\	!	!	!	!
8DD\ 8D	4cc#\ 4dd 4ff 4ccc	.	.	.	.
4G\ 4B 4d 4f	.	.	.	.	.
.	4b\ 4dd 4ff 4bb	.	.	.	.
8G\ 8B 8d 8f	.	[	.	.	.
!!LO:LB:g=original
=43	=43	=43	=43	=43	=43
8CC:\L 8GG: 8E:	16a\LL 16cc 16ee 16aa	.	1r	.	.
.	16e\J 16ee	.	.	.	.
8G\	8e\J [8ee	ff	.	.	.
8c\	4e\ 4ee]	.	.	.	.
8e\J	.	.	.	.	.
8B>~>\L 8g>	2r	>	.	.	.
8A>~>\ 8B> 8f>	.	.	.	.	.
8G>~>\ 8B> 8e>	.	.	.	.	.
8F>~>\J 8B> 8d>	.	]	.	.	.
=44	=44	=44	=44	=44	=44
8CC/ 8GG	8r	p	8r	.	.
4G\ 4c 4e	8cc:\L 8ee: 8gg: 8ccc:	<	8cc\	Ca-	.
.	8b:\ 8ee: 8gg: 8bb:	.	8b\	-ło-	.
8G\ 8c 8e	8cc:\J 8ee: 8gg: 8ccc:	.	8cc\	-wać	.
8EE/	2dd:\ 2ee: 2gg: 2ddd:	[	2dd\	daj,	.
4G\ 4c 4e	.	.	.	.	.
8G\ 8c 8e	.	.	.	.	.
=45	=45	=45	=45	=45	=45
8CC/	8r	<	8r	.	.
4G\ 4c 4e	(8b:\L 8ee: 8gg: 8bb:	.	8b\	ca-	.
.	8a:\ 8cc: 8ee: 8aa:	.	8a\	-ło-	.
8G\ 8c 8e	8b:\J 8ee: 8gg: 8bb:	.	8b\	-wać	.
8GG\	2cc:\) 2ee: 2gg: 2ccc:	[[	2cc\	daj	.
4G\ 4c 4e	.	.	.	.	.
8G\ 8c 8e	.	.	.	.	.
=46	=46	=46	=46	=46	=46
8C#X/	8r	f	8r	.	.
4A\ 4e 4g	(8a:\L 8cc#X: 8aa:	<	8a/	roz-	.
.	8g#X:\ 8cc#: 8gg#X:	.	8g#X/	-pło-	.
8A\ 8e 8g	8a:\J 8cc#: 8aa:	.	8a/	-mie-	.
8AA\	4b-X\ 4cc# 4ee 4bb-X	.	4b-X\	-nio-	.
4A\ 4c#X 4e	.	.	.	.	.
.	4a\) 4cc# 4ee 4aa	.	4a/	-ne	.
8A\ 8c# 8e	.	[[	.	.	.
=47	=47	=47	=47	=47	=47
8FF/ 8F	16ee^^<\LL 16aa 16eee	f	16ee\	us-	.
.	16ee-X^^<\J 16eee-X	.	16ee-X\	-ta	.
4A\ 4d 4f	[8dd^^<\J [8ff [8aa [8ddd	.	[8dd\	twe...	.
.	2.dd\] 2.ff] 2.aa] 2.ddd]	.	2.dd\]	.	.
8A\ 8d 8f	.	.	.	.	.
8a~\L	.	.	.	.	.
8f~\	.	.	.	.	.
8e~\	.	.	.	.	.
8d~\J	.	.	.	.	.
!!LO:LB:g=original
=48	=48	=48	=48	=48	=48
*ped	*	*	*	*	*
8FF#X^/ 8F#X	8r	f	8r	.	.
4A-X\ 4c 4e-X	(8cc:\L 8ee-X: 8aa-X: 8ccc:	.	8cc\	Do-	.
.	8b-X\ 8bb-X	.	8b-X\	-tkmi-	.
8A-\ 8c 8e-	8a-X\J) 8aa-X	.	8a-X/	-cie	.
!LO:TX:t=P:problem:niepełna miara w takcie	!	!	!	!	!
8ryy	2cc\ 2ccc	.	2cc\	ich,	.
4c\ 4e- 4g-X	.	.	.	.	.
8c\ 8e- 8g-	.	.	.	.	.
=49	=49	=49	=49	=49	=49
*ped	*	*	*	*	*
8GGG^/ 8GG	8r	ff	8r	.	.
!	!	!	!LO:TX:t=P:problem=cue na 1 dźwięku w dwudźwięku	!	!
!	!	!	!LO:N:n=1:cue	!	!
4G\ 4c 4e	(8g\L 8cc 8een 8gg	.	8g\ 8gg	to	.
!	!	!	!LO:N:n=1:cue	!	!
.	8f\ 8ff	.	8f\ 8ff	roz-	.
!	!	!	!LO:N:n=1:cue	!	!
8E\ 8G 8c	8e\J) 8ee	.	8e\ 8ee	-kosz	.
8GGG/ 8GG	2a;\ 2cc#X 2ee 2aa	.	2a;\ 2aa	ma,	.
4A;\ 4c#X 4e	.	.	.	.	.
8A\ 8c# 8e	.	.	.	.	.
=50	=50	=50	=50	=50	=50
*	*^	*	*^	*	*
8GGG/ 8GG	8r	8ryy	.	8r	2ryy	.	.
!	!	!	!LO:DY:rj	!	!	!	!
4D\ 4F 4A	(8a/L	4.c\ 4.f	f <	8a/	.	Co	.
.	8b/	.	.	8b\	.	cud-	.
8D\ 8F 8A	8cc/J	.	.	8cc\	.	-ne	.
!	!	!	!	!	!LO:N:cue	!	!
8GGG/ 8GG	4.f;\) 4.a 4.cc 4.ff	2ryy	.	4.ff;\	4.aa/	ża-	.
4D;\ 4F 4A 4c	.	.	.	.	.	.	.
!	!LO:TX:a:t=ten.	!	!	!	!LO:N:cue	!	!
8F~\ 8G 8B	8f\ 8g 8b 8ee	.	[[	8ee\	8gg/	-ry	.
*	*v	*v	*	*	*	*	*
*	*	*	*v	*v	*	*
=51	=51	=51	=51	=51	=51
8CC\L 8GG 8E	16ee\LL	>	16ee\LL	śle	.
.	16dd\J	.	16dd\J	.	.
8c~\ 8e 8g	[8cc\J	.	[8cc\J	.	.
8G~\ 8c 8e	4cc\]	]	2cc\]	.	.
8E~\J 8G 8c	.	.	.	.	.
4CC^/ 4GG 4C	4cc^^\ 4ee 4gg 4ccc	fz	.	.	.
4r	4r	.	4r	.	.
==	==	==	==	==	==
*-	*-	*-	*-	*-	*-
!!!system-decoration: s1{(s2,s3)}
!!!RDF**kern: < = below
!!!RDF**kern: > = above
!!!ENC: Anastazja Marusiak
!!!END: 2023-09-08
!!!ENC: Marta Chmielewska
!!!END: 2023-09-23
